X:1
T:If I Had A Wife
R:slide
M:12/8
L:1/8
K:G
|:B2A ABd e2d d2B|AGA B2A G2D D2A|
|B2A ABd e2d d2B|1 AGA B2A G3 G2A:|2 AGA B2A G3 ~B2A|]
|G2g gfg age d3|e2a aba g2a bge|
|d2g gfg age dBd|e2a aba g3 g2e|
|d2g gfg age d3|e2a aba g2a bge|
|d2g gfg age dBd|e2a aba g3 g3|